X:1
T:243 - Vida Eterna
T:Letra: James McGranahan (1840-1907)
T:Trad.: SalomÃ£o Luiz Ginsburg (1867-1927)
T:MÃºsica: James McGranahan (1840-1907)
L:1/8
M:4/4
Q:1/4=100
K:Ebmaj
V:1
"Eb"E2 E3/2F/2 "Bb"ED "Bb7"CB, | "Eb"E2 "Bb"F2 "Eb"G4 | "Bb"F2 FG "Eb"FE "Bb"DE |F2 "Eb"G2 "Bb7"A3z | "Eb"G2 "Eb7"B3/2B/2 AG FE | "Ab"D2 C2 A4 | c2 BA "Eb/Bb"G2 "Bb7"F2 | "Eb"E6 z2 || "Eb"G3/2A/2 B2 G3/2A/2 B2 | cB AG "Bb7"A4 | F3/2G/2 A2 F3/2G/2 A2 | BA GF "Eb"G3z | G2 "Eb7"B3/2B/2 AG FE | "Ab"D2 C2 A4 |c2 BA "Eb/Bb"G2 "Bb7"F2 | "Eb"E6 z2 |]
w:1.~Oh, vin-de ver Je-sus, o Sal-va-dor! Da mor-tee-ter-na sal-vao pe-ca-dor; A to-do que con-fi-aem seu a-mor, Sim, vi-dae-ter-na dÃ¡! Go-zo, paz, sal-va-Ã§Ã£o, vi-dae-ter-na dÃ¡!    Luz, a-mor e per-dÃ£o, vi-dae-ter-na dÃ¡!    A to-do que con-fi-aem seu a-mor,    Sim, vi-dae-ter-na dÃ¡!
w:2.~Ne-ces-si-ta-do fui ter com Je-sus, Mi-nhas fra-que-zas to-das eu lheex-pus; E-lea-pon-tou-me pa-raos al-tos cÃ©us, Pois vi-dae-ter-na dÃ¡.
w:3.~Das mi-nhas cul-pas e-le me li-vrou, Pois que na cruz res-ga-te con-su-mou; To-doo pe-ca-do meu me per-do-ou, E vi-dae-ter-na dÃ¡.
w:4.~Bem sei que na-da pos-so me-re-cer; Cum-pri tÃ£o pou-cas ve-zes meu de-ver; A Cris-to, pois, eu vou me sub-me-ter, Pois vi-dae-ter-na dÃ¡.
W:
W:
W:1. Oh, vinde ver Jesus, o Salvador!
W:Da morte eterna salva o pecador;
W:A todo que confia em seu amor,
W:Sim, vida eterna dÃ¡!
W:
W:(Estribilho)
W:Gozo, paz, salvaÃ§Ã£o, vida eterna dÃ¡!
W:Luz, amor e perdÃ£o, vida eterna dÃ¡!
W:A todo que confia em seu amor,
W:Sim, vida eterna dÃ¡!
W:
W:2. Necessitado fui ter com Jesus,
W:Minhas fraquezas todas eu lhe expus;
W:Ele apontou-me para os altos cÃ©us,
W:Pois vida eterna dÃ¡.
W:
W:
W:
W:3. Das minhas culpas ele me livrou,
W:Pois que na cruz resgate consumou;
W:Todo o pecado meu me perdoou,
W:E vida eterna dÃ¡.
W:
W:4. Bem sei que nada posso merecer;
W:Cumpri tÃ£o poucas vezes meu dever;
W:A Cristo, pois, eu vou me submeter,
W:Pois vida eterna dÃ¡.
W:
W:

